svgs/light/calculator-simple.svg

<svg xmlns="http://www.w3.org/2000/svg" viewBox="0 0 512 512"><!--! Font Awesome Pro 6.3.0 by @fontawesome - https://fontawesome.com License - https://fontawesome.com/license (Commercial License) Copyright 2023 Fonticons, Inc. --><path d="M336 128H384v48c0 8.844 7.156 16.04 16 16.04S416 184.8 416 176V128h48C472.8 128 480 120.9 480 112S472.8 96 464 96H416V48c0-8.844-7.156-15.96-16-15.96S384 39.16 384 48V96h-48C327.2 96 320 103.2 320 112S327.2 128 336 128zM168.6 343.4c-6.254-6.254-16.37-6.254-22.63 0L112 377.4l-33.94-33.94c-6.254-6.254-16.37-6.254-22.63 0s-6.254 16.37 0 22.63L89.37 400l-33.94 33.94c-6.254 6.254-6.254 16.37 0 22.63s16.37 6.254 22.63 0L112 422.6l33.94 33.94c6.254 6.254 16.37 6.254 22.63 0s6.254-16.37 0-22.63L134.6 400l33.94-33.94C174.8 359.8 174.8 349.7 168.6 343.4zM48 128h128C184.8 128 192 120.8 192 112S184.8 96 176 96h-128C39.16 96 32 103.2 32 112S39.16 128 48 128zM496 240h-224v-224C272 7.156 264.8 0 256 0S240 7.156 240 16v224h-224C7.156 240 0 247.2 0 256s7.156 16 16 16h224v224c0 8.844 7.156 16 16 16s16-7.156 16-16v-224h224C504.8 272 512 264.8 512 256S504.8 240 496 240zM464 416h-128c-8.844 0-16 7.156-16 16s7.156 16 16 16h128c8.844 0 16-7.156 16-16S472.8 416 464 416zM464 352h-128c-8.844 0-16 7.156-16 16s7.156 16 16 16h128c8.844 0 16-7.156 16-16S472.8 352 464 352z"/></svg>

<svg xmlns="http://www.w3.org/2000/svg" viewBox="0 0 512 512"><!-- Font Awesome Pro 6.0.0-alpha2 by @fontawesome - https://fontawesome.com License - https://fontawesome.com/license (Commercial License) --><path d="M336 128H384V176C384 184.844 391.156 192 400 192S416 184.844 416 176V128H464C472.844 128 480 120.844 480 112S472.844 96 464 96H416V48C416 39.156 408.844 32 400 32S384 39.156 384 48V96H336C327.156 96 320 103.156 320 112S327.156 128 336 128ZM168.568 343.432C162.314 337.178 152.195 337.178 145.941 343.432L112 377.373L78.059 343.432C71.805 337.178 61.686 337.178 55.432 343.432S49.178 359.805 55.432 366.059L89.373 400L55.432 433.941C49.178 440.195 49.178 450.314 55.432 456.568S71.805 462.822 78.059 456.568L112 422.627L145.941 456.568C152.195 462.822 162.314 462.822 168.568 456.568S174.822 440.195 168.568 433.941L134.627 400L168.568 366.059C174.822 359.805 174.822 349.686 168.568 343.432ZM48 128H176C184.844 128 192 120.844 192 112S184.844 96 176 96H48C39.156 96 32 103.156 32 112S39.156 128 48 128ZM496 240H272V16C272 7.156 264.844 0 256 0S240 7.156 240 16V240H16C7.156 240 0 247.156 0 256S7.156 272 16 272H240V496C240 504.844 247.156 512 256 512S272 504.844 272 496V272H496C504.844 272 512 264.844 512 256S504.844 240 496 240ZM464 416H336C327.156 416 320 423.156 320 432S327.156 448 336 448H464C472.844 448 480 440.844 480 432S472.844 416 464 416ZM464 352H336C327.156 352 320 359.156 320 368S327.156 384 336 384H464C472.844 384 480 376.844 480 368S472.844 352 464 352Z"/></svg>
